X: 305660
M: 2/4
L: 1/16
K: F
c2 |\
c2fg a3g | f2AB c4 | (e2c2)(c2G2) | (B2A2) A2F2 |\
c2fg a3g | f2AB c4 | G^FGA Bcde | f6 H|]
[G2B,2][GB,][GB,] [G2B,2][G2B,2] | G2B2 d4 | (d2c2)(e2c2) | (a2g2)"^D.C.".f2 |]
z2 |\
(Tc2A2) "^>"f4 | (Tc2A2) "^>"a4 | (TB2G2) "^>"d4 | dc=Bc A2A(_B |\


